X:1
T:Mrs. Monroe's -- Jig
R:jig
B:Ryan's Mammoth Collection
N: 111 626
Z: Contributed by Ray Davies,  ray:davies99.freeserve.co.uk
M:6/8
L:1/8
K:G
D|\
G2G AGA | Bcd efg | G2G AGA | BGE E2D |
G2G AGA | Bcd efg | dcB AGA | BGG G2 H:|
|:f|\
gfg efg | f2d def | gfg aga | bge e2f |
gfg aga | bge efg | dcB cBA | BGG G2 "_D.C.":|
